X: 607
T: I Leave You in Sadness.
T: fagaim ann du.b.bron .tu.
R:air
N:"With expression." "collected from F.O'Neill."
B:O'Neill's 607
Z:Probably should be written in one sharp
Z:Transcribed by John Walsh (walsh@math.ubc.ca)
M:6/8
L:1/8
%Q:60
K:Gmix
(d/>c/)|B>AG ABd|e>fg (d<B)G|(g>fe) (dBG)|(EcB) (A2 d/>c/)|
B>AG ABd|e>fg (dB>)G|g>fe (d<g)B|(DEF) G2||
d|d>Bd e>fg|age (f<d)d|(gfe) (dfa)|(gfe) d2 d|
.g(b/a/g/f/) .e(a/g/f/e/)|dBd Hg2 (g/f/)|e>fg (d<B)G|(DEF) G2||


